;FLAVOR:Marlin
;TIME:840
;Filament used: 0.566082m
;Layer height: 0.16
;MINX:89.799
;MINY:89.799
;MINZ:0.2
;MAXX:145.201
;MAXY:145.201
;MAXZ:9.8
;POSTPROCESSED
;Generated with Cura_SteamEngine 4.11.0
M140 S60
M105
M190 S60
M104 S200
M105
M109 S200
M82 ;absolute extrusion mode
; Ender 3 Custom Start G-code
G92 E0 ; Reset Extruder
G28 ; Home all axes
G1 Z2.0 F3000 ; Move Z Axis up little to prevent scratching of Heat Bed
G1 X0.1 Y20 Z0.3 F5000.0 ; Move to start position
G1 X0.1 Y200.0 Z0.3 F1500.0 E15 ; Draw the first line
G1 X0.4 Y200.0 Z0.3 F5000.0 ; Move to side a little
G1 X0.4 Y20 Z0.3 F1500.0 E30 ; Draw the second line
G92 E0 ; Reset Extruder
G1 Z2.0 F3000 ; Move Z Axis up little to prevent scratching of Heat Bed
G1 X5 Y20 Z0.3 F5000.0 ; Move over to prevent blob squish
G92 E0
G92 E0
G1 F2700 E-5
;LAYER_COUNT:51
;LAYER:0
;Custom Timelapse start.
M83 ;Switch to relative E values for retraction.
G1 F1800 E-3.0 ;Retraction
M82 ;Switch to absolute E values for retraction.
G91   ;Switch to relative position.
G0 Z1 ;Move Z axis up a bit
G90   ;Switch back to absolute position
M117 0 ;Show current layer.
G0 X235 Y235
M400 ;Wait to finish moving.
G4 P3000 ;Wait for camera
G0 F1800 X0 Y0 ;Move back to original position.
G91 ;Switch to relative position
G0 Z-1 ;Restore Z axis
G90 ;Switch back to absolute position
;Custom Timelapse end.
M107
G0 F6000 X108.039 Y93.986 Z0.2
;TYPE:SKIRT
G1 F2700 E0
G1 F1200 X108.684 Y93.274 E0.03195
G1 X108.885 Y93.071 E0.04146
G1 X109.573 Y92.434 E0.07264
G1 X110.313 Y91.857 E0.10385
G1 X111.099 Y91.345 E0.13505
G1 X111.925 Y90.902 E0.16622
G1 X112.787 Y90.531 E0.19744
G1 X113.677 Y90.235 E0.22863
G1 X114.588 Y90.016 E0.2598
G1 X115.516 Y89.875 E0.29102
G1 X116.196 Y89.823 E0.3137
G1 X116.348 Y89.816 E0.31876
G1 X116.78 Y89.804 E0.33313
G1 X117.522 Y89.799 E0.35781
G1 X117.754 Y89.8 E0.36553
G1 X118.452 Y89.81 E0.38875
G1 X119.388 Y89.864 E0.41993
G1 X120.316 Y89.996 E0.45111
G1 X121.23 Y90.208 E0.48231
G1 X122.122 Y90.497 E0.5135
G1 X122.987 Y90.86 E0.5447
G1 X123.817 Y91.296 E0.57588
G1 X124.608 Y91.801 E0.6071
G1 X125.352 Y92.372 E0.63829
G1 X126.052 Y93.011 E0.66981
G1 X126.245 Y93.203 E0.67887
G1 X126.985 Y94.017 E0.71546
G1 X127.61 Y94.778 E0.74821
G1 X129.336 Y96.824 E0.83724
G1 X131.014 Y98.701 E0.92098
G1 X132.742 Y100.53 E1.00467
G1 X134.515 Y102.3 E1.088
G1 X136.344 Y104.028 E1.17168
G1 X138.241 Y105.72 E1.25623
G1 X140.153 Y107.332 E1.33941
G1 X140.51 Y107.62 E1.35466
G1 X141.009 Y108.034 E1.37623
G1 X141.725 Y108.684 E1.40839
G1 X141.929 Y108.886 E1.41794
G1 X142.566 Y109.573 E1.4491
G1 X143.143 Y110.313 E1.48031
G1 X143.655 Y111.099 E1.51151
G1 X144.098 Y111.926 E1.54272
G1 X144.469 Y112.787 E1.5739
G1 X144.765 Y113.677 E1.60509
G1 X144.984 Y114.589 E1.63629
G1 X145.125 Y115.516 E1.66748
G1 X145.177 Y116.196 E1.69016
G1 X145.184 Y116.348 E1.69522
G1 X145.196 Y116.773 E1.70936
G1 X145.201 Y117.449 E1.73185
G1 X145.2 Y117.674 E1.73933
G1 X145.19 Y118.438 E1.76474
G1 X145.138 Y119.374 E1.79592
G1 X145.006 Y120.303 E1.82713
G1 X144.796 Y121.217 E1.85832
G1 X144.508 Y122.11 E1.88953
G1 X144.146 Y122.975 E1.92072
G1 X143.711 Y123.806 E1.95192
G1 X143.207 Y124.596 E1.98308
G1 X142.637 Y125.341 E2.01428
G1 X142.228 Y125.804 E2.03483
G1 X142.171 Y125.865 E2.03761
G1 X141.806 Y126.238 E2.05496
G1 X141.657 Y126.383 E2.06188
G1 X140.96 Y127.006 E2.09297
G1 X140.17 Y127.654 E2.12696
G1 X138.176 Y129.336 E2.21372
G1 X136.299 Y131.014 E2.29746
G1 X134.47 Y132.742 E2.38115
G1 X132.699 Y134.516 E2.46452
G1 X130.972 Y136.344 E2.54816
G1 X129.28 Y138.241 E2.63271
G1 X127.668 Y140.153 E2.71589
G1 X127.377 Y140.513 E2.73128
G1 X126.966 Y141.008 E2.75268
G1 X126.339 Y141.7 E2.78374
G1 X126.141 Y141.901 E2.79313
G1 X125.455 Y142.541 E2.82433
G1 X124.717 Y143.12 E2.85553
G1 X123.933 Y143.633 E2.88669
G1 X123.107 Y144.078 E2.9179
G1 X122.247 Y144.452 E2.94909
G1 X121.358 Y144.75 E2.98027
G1 X120.446 Y144.972 E3.01149
G1 X119.27 Y145.14 E3.051
G1 X119.111 Y145.154 E3.05631
G1 X118.22 Y145.196 E3.08598
G1 X117.478 Y145.201 E3.11066
G1 X117.239 Y145.2 E3.11861
G1 X116.572 Y145.19 E3.1408
G1 X115.636 Y145.136 E3.17198
G1 X114.707 Y145.002 E3.2032
G1 X113.794 Y144.79 E3.23437
G1 X112.902 Y144.501 E3.26556
G1 X112.037 Y144.137 E3.29677
G1 X111.207 Y143.7 E3.32797
G1 X110.417 Y143.195 E3.35916
G1 X109.978 Y142.87 E3.37732
G1 X109.401 Y142.394 E3.4022
G1 X109.229 Y142.242 E3.40984
G1 X108.308 Y141.325 E3.45306
G1 X107.98 Y140.943 E3.46981
G1 X107.361 Y140.187 E3.50231
G1 X105.65 Y138.159 E3.59056
G1 X104 Y136.312 E3.67293
G1 X102.258 Y134.469 E3.75728
G1 X100.485 Y132.699 E3.84061
G1 X98.652 Y130.967 E3.92448
G1 X96.772 Y129.29 E4.00827
G1 X94.823 Y127.648 E4.09304
G1 X94.479 Y127.37 E4.10775
G1 X93.979 Y126.954 E4.12938
G1 X93.294 Y126.334 E4.16011
G1 X93.092 Y126.135 E4.16954
G1 X92.453 Y125.449 E4.20072
G1 X91.874 Y124.711 E4.23192
G1 X91.36 Y123.926 E4.26313
G1 X90.915 Y123.101 E4.29431
G1 X90.542 Y122.24 E4.32552
G1 X90.244 Y121.351 E4.3567
G1 X90.022 Y120.44 E4.38789
G1 X89.879 Y119.513 E4.41909
G1 X89.825 Y118.829 E4.44191
G1 X89.817 Y118.663 E4.44743
G1 X89.804 Y118.208 E4.46257
G1 X89.799 Y117.479 E4.48682
G1 X89.8 Y117.246 E4.49457
G1 X89.81 Y116.548 E4.51779
G1 X89.864 Y115.612 E4.54897
G1 X89.996 Y114.684 E4.58015
G1 X90.208 Y113.77 E4.61135
G1 X90.497 Y112.878 E4.64254
G1 X90.86 Y112.013 E4.67374
G1 X91.296 Y111.183 E4.70492
G1 X91.801 Y110.392 E4.73614
G1 X92.372 Y109.648 E4.76733
G1 X93.011 Y108.948 E4.79885
G1 X93.203 Y108.755 E4.80791
G1 X94.017 Y108.015 E4.8445
G1 X94.797 Y107.374 E4.87808
G1 X96.824 Y105.664 E4.96628
G1 X98.71 Y103.978 E5.05042
G1 X100.53 Y102.258 E5.13371
G1 X102.301 Y100.484 E5.21708
G1 X104.028 Y98.656 E5.30072
G1 X105.72 Y96.759 E5.38527
G1 X107.348 Y94.828 E5.46928
G1 X107.632 Y94.476 E5.48432
G1 X108.039 Y93.986 E5.5055
G0 F6000 X108.347 Y94.241
G1 F1200 X108.969 Y93.556 E5.53628
G1 X109.17 Y93.353 E5.54578
G1 X109.845 Y92.727 E5.5764
G1 X110.573 Y92.163 E5.60703
G1 X111.346 Y91.664 E5.63763
G1 X112.16 Y91.233 E5.66827
G1 X113.008 Y90.875 E5.69888
G1 X113.884 Y90.592 E5.7295
G1 X114.782 Y90.386 E5.76014
G1 X115.693 Y90.259 E5.79074
G1 X116.214 Y90.222 E5.80811
G1 X116.366 Y90.215 E5.81317
G1 X116.783 Y90.204 E5.82704
G1 X117.525 Y90.199 E5.85172
G1 X117.748 Y90.2 E5.85914
G1 X118.446 Y90.21 E5.88236
G1 X119.365 Y90.263 E5.91297
G1 X120.276 Y90.396 E5.9436
G1 X121.172 Y90.607 E5.97421
G1 X122.046 Y90.895 E6.00482
G1 X122.893 Y91.258 E6.03547
G1 X123.704 Y91.693 E6.06608
G1 X124.474 Y92.197 E6.09669
G1 X125.198 Y92.766 E6.12731
G1 X125.77 Y93.294 E6.1532
G1 X125.963 Y93.486 E6.16226
G1 X126.676 Y94.271 E6.19753
G1 X127.331 Y95.068 E6.23184
G1 X129.033 Y97.085 E6.31962
G1 X130.707 Y98.959 E6.4032
G1 X132.451 Y100.804 E6.48764
G1 X134.241 Y102.592 E6.57179
G1 X136.086 Y104.335 E6.6562
G1 X137.959 Y106.005 E6.73967
G1 X139.928 Y107.665 E6.82532
G1 X140.254 Y107.928 E6.83926
G1 X140.753 Y108.342 E6.86082
G1 X141.443 Y108.968 E6.89181
G1 X141.647 Y109.17 E6.90136
G1 X142.273 Y109.845 E6.93198
G1 X142.837 Y110.573 E6.96261
G1 X143.336 Y111.346 E6.99321
G1 X143.767 Y112.16 E7.02384
G1 X144.125 Y113.008 E7.05446
G1 X144.408 Y113.884 E7.08508
G1 X144.614 Y114.782 E7.11572
G1 X144.741 Y115.694 E7.14634
G1 X144.778 Y116.214 E7.16368
G1 X144.785 Y116.366 E7.16874
G1 X144.796 Y116.776 E7.18239
G1 X144.801 Y117.452 E7.20487
G1 X144.8 Y117.669 E7.21209
G1 X144.79 Y118.433 E7.2375
G1 X144.738 Y119.352 E7.26812
G1 X144.606 Y120.263 E7.29873
G1 X144.396 Y121.159 E7.32934
G1 X144.109 Y122.034 E7.35997
G1 X143.747 Y122.881 E7.39061
G1 X143.313 Y123.693 E7.42123
G1 X142.81 Y124.464 E7.45185
G1 X141.936 Y125.531 E7.49772
G1 X141.879 Y125.592 E7.5005
G1 X141.527 Y125.952 E7.51724
G1 X141.378 Y126.097 E7.52416
G1 X140.707 Y126.696 E7.55408
G1 X139.908 Y127.352 E7.58846
G1 X137.915 Y129.033 E7.67518
G1 X136.041 Y130.707 E7.75875
G1 X134.196 Y132.451 E7.8432
G1 X132.408 Y134.242 E7.92737
G1 X130.665 Y136.086 E8.01176
G1 X128.995 Y137.959 E8.09522
G1 X127.335 Y139.928 E8.18088
G1 X127.069 Y140.257 E8.19495
G1 X126.658 Y140.752 E8.21635
G1 X126.054 Y141.42 E8.24631
G1 X125.856 Y141.621 E8.25569
G1 X125.183 Y142.248 E8.28628
G1 X124.457 Y142.814 E8.3169
G1 X123.684 Y143.316 E8.34756
G1 X122.872 Y143.748 E8.37815
G1 X122.024 Y144.108 E8.40879
G1 X121.149 Y144.393 E8.4394
G1 X120.252 Y144.602 E8.47003
G1 X119.235 Y144.741 E8.50417
G1 X119.076 Y144.755 E8.50948
G1 X118.217 Y144.796 E8.53808
G1 X117.475 Y144.801 E8.56276
G1 X117.245 Y144.8 E8.57041
G1 X116.578 Y144.79 E8.5926
G1 X115.659 Y144.736 E8.62322
G1 X114.748 Y144.603 E8.65384
G1 X113.852 Y144.391 E8.68446
G1 X112.978 Y144.102 E8.71508
G1 X112.132 Y143.739 E8.7457
G1 X111.321 Y143.303 E8.77632
G1 X110.274 Y142.593 E8.8184
G1 X110.222 Y142.553 E8.82058
G1 X109.666 Y142.094 E8.84456
G1 X109.494 Y141.942 E8.8522
G1 X108.606 Y141.059 E8.89385
G1 X108.289 Y140.69 E8.91003
G1 X107.628 Y139.884 E8.9447
G1 X105.97 Y137.918 E9.03023
G1 X104.288 Y136.035 E9.11421
G1 X102.549 Y134.195 E9.19842
G1 X100.759 Y132.407 E9.28257
G1 X98.914 Y130.664 E9.36698
G1 X97.05 Y129.002 E9.45005
G1 X95.047 Y127.314 E9.53717
G1 X94.734 Y127.062 E9.55053
G1 X94.234 Y126.646 E9.57217
G1 X93.575 Y126.049 E9.60174
G1 X93.373 Y125.85 E9.61117
G1 X92.746 Y125.176 E9.64179
G1 X92.179 Y124.45 E9.67243
G1 X91.678 Y123.678 E9.70304
G1 X91.246 Y122.865 E9.73366
G1 X90.886 Y122.018 E9.76427
G1 X90.601 Y121.143 E9.79488
G1 X90.392 Y120.246 E9.82551
G1 X90.263 Y119.334 E9.85615
G1 X90.224 Y118.809 E9.87366
G1 X90.216 Y118.643 E9.87918
G1 X90.204 Y118.206 E9.89372
G1 X90.199 Y117.477 E9.91797
G1 X90.2 Y117.252 E9.92546
G1 X90.21 Y116.554 E9.94867
G1 X90.263 Y115.635 E9.97929
G1 X90.396 Y114.724 E10.00991
G1 X90.607 Y113.828 E10.04053
G1 X90.895 Y112.954 E10.07113
G1 X91.258 Y112.107 E10.10178
G1 X91.693 Y111.296 E10.13239
G1 X92.197 Y110.526 E10.163
G1 X92.766 Y109.802 E10.19363
G1 X93.294 Y109.23 E10.21952
G1 X93.486 Y109.037 E10.22857
G1 X94.271 Y108.324 E10.26385
G1 X95.068 Y107.669 E10.29816
G1 X97.085 Y105.967 E10.38594
G1 X98.959 Y104.293 E10.46951
G1 X100.804 Y102.549 E10.55395
G1 X102.592 Y100.758 E10.63813
G1 X104.335 Y98.914 E10.72252
G1 X106.005 Y97.041 E10.80598
G1 X107.665 Y95.072 E10.89164
G1 X107.94 Y94.731 E10.90621
G1 X108.347 Y94.241 E10.9274
G0 F6000 X108.655 Y94.497
G1 F1200 X109.253 Y93.837 E10.95702
G1 X109.454 Y93.634 E10.96652
G1 X110.117 Y93.021 E10.99655
G1 X110.832 Y92.469 E11.0266
G1 X111.593 Y91.983 E11.05663
G1 X112.394 Y91.566 E11.08666
G1 X113.228 Y91.221 E11.11668
G1 X114.09 Y90.951 E11.14673
G1 X114.973 Y90.759 E11.17678
G1 X116.233 Y90.622 E11.21894
G1 X116.385 Y90.615 E11.224
G1 X116.785 Y90.604 E11.23731
G1 X117.527 Y90.599 E11.26199
G1 X117.742 Y90.6 E11.26914
G1 X118.44 Y90.61 E11.29235
G1 X119.342 Y90.663 E11.32241
G1 X120.235 Y90.795 E11.35243
G1 X121.113 Y91.006 E11.38246
G1 X121.969 Y91.294 E11.4125
G1 X122.796 Y91.656 E11.44253
G1 X123.588 Y92.091 E11.47258
G1 X124.339 Y92.593 E11.50263
G1 X125.042 Y93.16 E11.53267
G1 X125.488 Y93.578 E11.553
G1 X125.681 Y93.77 E11.56205
G1 X126.367 Y94.525 E11.59598
G1 X127.036 Y95.34 E11.63105
G1 X128.727 Y97.344 E11.71826
G1 X130.419 Y99.237 E11.80271
G1 X132.16 Y101.079 E11.88701
G1 X133.967 Y102.883 E11.97193
G1 X135.811 Y104.625 E12.05631
G1 X137.698 Y106.309 E12.14043
G1 X139.66 Y107.963 E12.22578
G1 X139.999 Y108.236 E12.24025
G1 X140.498 Y108.65 E12.26182
G1 X141.162 Y109.252 E12.29163
G1 X141.366 Y109.454 E12.30118
G1 X141.979 Y110.117 E12.33121
G1 X142.531 Y110.832 E12.36125
G1 X143.017 Y111.593 E12.39129
G1 X143.435 Y112.394 E12.42134
G1 X143.779 Y113.229 E12.45137
G1 X144.049 Y114.091 E12.48142
G1 X144.241 Y114.973 E12.51144
G1 X144.378 Y116.233 E12.55359
G1 X144.385 Y116.385 E12.55866
G1 X144.396 Y116.779 E12.57176
G1 X144.401 Y117.455 E12.59425
G1 X144.39 Y118.427 E12.62658
G1 X144.338 Y119.329 E12.65663
G1 X144.207 Y120.223 E12.68668
G1 X143.997 Y121.101 E12.71671
G1 X143.71 Y121.957 E12.74674
G1 X143.349 Y122.785 E12.77678
G1 X142.916 Y123.578 E12.80683
G1 X142.414 Y124.329 E12.83688
G1 X141.644 Y125.258 E12.87701
G1 X141.587 Y125.319 E12.87979
G1 X141.248 Y125.665 E12.8959
G1 X141.099 Y125.81 E12.90281
G1 X140.453 Y126.387 E12.93162
G1 X139.638 Y127.056 E12.96669
G1 X137.656 Y128.727 E13.05291
G1 X135.763 Y130.419 E13.13736
G1 X133.921 Y132.16 E13.22166
G1 X132.116 Y133.968 E13.30663
G1 X130.375 Y135.811 E13.39096
G1 X128.691 Y137.698 E13.47508
G1 X127.037 Y139.66 E13.56043
G1 X126.762 Y140.002 E13.57502
G1 X126.351 Y140.497 E13.59642
G1 X125.77 Y141.139 E13.62522
G1 X125.572 Y141.34 E13.63461
G1 X124.91 Y141.955 E13.66466
G1 X124.196 Y142.509 E13.69472
G1 X123.437 Y142.997 E13.72473
G1 X122.637 Y143.416 E13.75477
G1 X121.803 Y143.763 E13.78481
G1 X120.942 Y144.035 E13.81484
G1 X120.06 Y144.23 E13.84489
G1 X119.2 Y144.343 E13.87374
G1 X119.041 Y144.357 E13.87904
G1 X118.215 Y144.396 E13.90655
G1 X117.473 Y144.401 E13.93123
G1 X117.251 Y144.4 E13.93861
G1 X116.584 Y144.39 E13.9608
G1 X115.683 Y144.336 E13.99082
G1 X114.789 Y144.203 E14.02088
G1 X113.911 Y143.992 E14.05091
G1 X113.056 Y143.703 E14.08093
G1 X112.229 Y143.341 E14.11096
G1 X111.437 Y142.906 E14.14101
G1 X110.518 Y142.276 E14.17807
G1 X110.466 Y142.236 E14.18025
G1 X109.931 Y141.794 E14.20333
G1 X109.759 Y141.642 E14.21097
G1 X108.904 Y140.792 E14.25107
G1 X108.599 Y140.436 E14.26666
G1 X107.959 Y139.656 E14.30022
G1 X106.276 Y137.66 E14.38706
G1 X104.576 Y135.757 E14.47193
G1 X102.84 Y133.92 E14.55599
G1 X101.033 Y132.116 E14.64092
G1 X99.208 Y130.391 E14.72444
G1 X97.29 Y128.681 E14.80991
G1 X95.314 Y127.017 E14.89583
G1 X94.99 Y126.755 E14.90969
G1 X94.49 Y126.339 E14.93132
G1 X93.856 Y125.764 E14.95979
G1 X93.654 Y125.565 E14.96922
G1 X93.039 Y124.904 E14.99925
G1 X92.485 Y124.19 E15.0293
G1 X91.997 Y123.431 E15.05932
G1 X91.577 Y122.631 E15.08937
G1 X91.231 Y121.797 E15.1194
G1 X90.959 Y120.936 E15.14943
G1 X90.764 Y120.054 E15.17948
G1 X90.624 Y118.79 E15.22177
G1 X90.616 Y118.624 E15.2273
G1 X90.604 Y118.203 E15.24131
G1 X90.599 Y117.474 E15.26556
G1 X90.6 Y117.258 E15.27274
G1 X90.61 Y116.56 E15.29596
G1 X90.663 Y115.658 E15.32601
G1 X90.795 Y114.765 E15.35604
G1 X91.006 Y113.887 E15.38607
G1 X91.294 Y113.031 E15.41611
G1 X91.656 Y112.204 E15.44613
G1 X92.091 Y111.412 E15.47619
G1 X92.593 Y110.661 E15.50623
G1 X93.16 Y109.958 E15.53627
G1 X93.578 Y109.512 E15.5566
G1 X93.77 Y109.319 E15.56566
G1 X94.525 Y108.633 E15.59959
G1 X95.34 Y107.964 E15.63466
G1 X97.344 Y106.273 E15.72187
G1 X99.237 Y104.581 E15.80631
G1 X101.079 Y102.84 E15.89061
G1 X102.884 Y101.032 E15.97559
G1 X104.625 Y99.189 E16.05991
G1 X106.309 Y97.302 E16.14403
G1 X107.963 Y95.34 E16.22938
G1 X108.248 Y94.987 E16.24447
G1 X108.655 Y94.497 E16.26566
G1 F2700 E11.26566
;MESH:Basic_Propeller_v1.obj
G0 F6000 X115.841 Y114.812
G0 X116.917 Y115.461
G0 X116.058 Y116.708
G0 X115.908 Y117.092
G0 X115.854 Y117.503
G0 X115.911 Y117.922
G0 X116.061 Y118.292
G0 X116.301 Y118.626
G0 X117.386 Y119.302
;TYPE:WALL-INNER
G1 F2700 E16.26566
G1 F1200 X117.714 Y119.281 E16.27659
G1 X117.837 Y119.274 E16.28069
G1 X117.849 Y119.271 E16.2811
G1 X118.27 Y119.135 E16.29581
G1 X118.452 Y119.019 E16.30299
G1 X118.651 Y118.892 E16.31084
G1 X118.67 Y118.872 E16.31176
G1 X118.862 Y118.669 E16.32105
G1 X118.961 Y118.564 E16.32585
G1 X119.017 Y118.461 E16.32975
G1 X119.181 Y118.164 E16.34104
G1 X119.258 Y117.858 E16.35153
G1 X119.292 Y117.725 E16.3561
G1 X119.292 Y117.275 E16.37107
G1 X119.259 Y117.143 E16.37559
G1 X119.181 Y116.836 E16.38613
G1 X119.018 Y116.54 E16.39737
G1 X118.961 Y116.436 E16.40131
G1 X118.863 Y116.332 E16.40606
G1 X118.671 Y116.129 E16.41536
G1 X118.651 Y116.108 E16.41632
G1 X118.453 Y115.982 E16.42413
G1 X118.27 Y115.865 E16.43135
G1 X117.85 Y115.73 E16.44602
G1 X117.837 Y115.726 E16.44648
G1 X117.714 Y115.719 E16.45057
G1 X117.386 Y115.698 E16.46151
G1 X117.133 Y115.745 E16.47006
G1 X116.942 Y115.781 E16.47653
G1 X116.532 Y115.976 E16.49163
G1 X116.328 Y116.144 E16.50042
G1 X116.183 Y116.263 E16.50666
G1 X116.143 Y116.318 E16.50892
G1 X115.975 Y116.55 E16.51845
G1 X115.917 Y116.63 E16.52173
G1 X115.751 Y117.051 E16.53679
